Newaita-dark/apps/48/kolourpaint.svg

<svg height="48pt" viewBox="0 0 48 48" width="48pt" xmlns="http://www.w3.org/2000/svg" xmlns:xlink="http://www.w3.org/1999/xlink"><linearGradient id="a"><stop offset="0" stop-opacity=".313725"/><stop offset=".222222" stop-opacity=".27451"/><stop offset="1" stop-opacity="0"/></linearGradient><radialGradient id="b" cx="450.908936" cy="189.579361" gradientTransform="matrix(.00000026 -.117199 -.210958 -.00000015 64.304021 95.392994)" gradientUnits="userSpaceOnUse" r="21.166656" xlink:href="#a"/><radialGradient id="c" cx="450.908936" cy="189.579361" gradientTransform="matrix(-.00000026 .117199 .210958 .00000015 -16.674469 -11.291223)" gradientUnits="userSpaceOnUse" r="21.166656" xlink:href="#a"/><radialGradient id="d" cx="450.908936" cy="189.579361" gradientTransform="matrix(-.00000026 -.117199 .210958 -.00000015 -16.674469 95.392994)" gradientUnits="userSpaceOnUse" r="21.166656" xlink:href="#a"/><radialGradient id="e" cx="450.908936" cy="189.579361" gradientTransform="matrix(.00000026 .117199 -.210958 .00000015 64.304018 -11.291224)" gradientUnits="userSpaceOnUse" r="21.166656" xlink:href="#a"/><linearGradient id="f" gradientTransform="matrix(.0200401 0 0 .093759 18.698079 20.158175)" gradientUnits="userSpaceOnUse" x1="255.323059" x2="255.323044" y1="233.5" y2="254.666656"><stop offset="0" stop-opacity=".27451"/><stop offset="1" stop-opacity="0"/></linearGradient><linearGradient id="g" gradientUnits="userSpaceOnUse" x1="23.814747" x2="23.814747" y1="42.05085514717" y2="23.19753457661"><stop offset="0" stop-color="#66bb6a"/><stop offset="1" stop-color="#81c784"/></linearGradient><linearGradient id="h" gradientUnits="userSpaceOnUse" x1="12.90187" x2="12.90187" y1="23.29136614717" y2="4.43804557661"><stop offset="0" stop-color="#ef5350"/><stop offset="1" stop-color="#e57373"/></linearGradient><linearGradient id="i" gradientUnits="userSpaceOnUse" x1="34.732084" x2="34.732084" y1="23.29136614717" y2="4.43804557661"><stop offset="0" stop-color="#42a5f5"/><stop offset="1" stop-color="#64b5f6"/></linearGradient><path d="m24.808594 42.050781h3.96875v-1.984375h-3.96875zm0 0" fill="url(#b)"/><path d="m22.824219 42.050781h-3.972657v1.984375h3.972657zm0 0" fill="url(#c)"/><path d="m22.824219 42.050781h-3.972657v-1.984375h3.972657zm0 0" fill="url(#d)"/><path d="m24.808594 42.050781h3.96875v1.984375h-3.96875zm0 0" fill="url(#e)"/><path d="m22.824219 41.554688h1.984375v2.480468h-1.984375zm0 0" fill="url(#f)"/><path d="m16.867188 36.097656c0 3.296875 3.097656 5.953125 6.949218 5.953125 3.847656 0 6.945313-2.65625 6.945313-5.953125 0-2.480468-4.464844-8.929687-6.945313-12.898437-2.480468 3.96875-6.949218 10.417969-6.949218 12.898437zm0 0" fill="url(#g)"/><path d="m23.816406 23.199219c-2.480468 3.96875-6.949218 10.417969-6.949218 12.898437 0 .101563.003906.199219.011718.300782.214844-2.613282 4.519532-8.835938 6.9375-12.703126 2.417969 3.867188 6.71875 10.089844 6.9375 12.703126.003906-.101563.007813-.199219.007813-.300782 0-2.480468-4.464844-8.929687-6.945313-12.898437zm0 0" fill="#fff" fill-opacity=".392157"/><path d="m16.871094 36.003906c0 .03125-.003906.0625-.003906.09375 0 3.296875 3.097656 5.953125 6.949218 5.953125 3.847656 0 6.945313-2.65625 6.945313-5.953125 0-.03125 0-.0625-.003907-.09375-.09375 3.226563-3.152343 5.800782-6.941406 5.800782-3.789062 0-6.851562-2.574219-6.945312-5.800782zm0 0" fill-opacity=".235294"/><path d="m23.816406 22.933594-.121094.1875c-1.238281 1.984375-2.976562 4.589844-4.40625 7.011718-.714843 1.214844-1.351562 2.378907-1.8125 3.402344-.460937 1.023438-.75 1.898438-.75 2.5625 0 3.386719 3.175782 6.09375 7.089844 6.09375 3.910156 0 7.085938-2.707031 7.085938-6.09375 0-.664062-.289063-1.539062-.75-2.5625-.460938-1.023437-1.097656-2.1875-1.8125-3.402344-1.429688-2.421874-3.167969-5.027343-4.40625-7.011718zm0 .523437c1.230469 1.964844 2.898438 4.472657 4.28125 6.820313.710938 1.207031 1.34375 2.367187 1.796875 3.375.457031 1.007812.726563 1.867187.726563 2.445312 0 3.210938-3.023438 5.8125-6.804688 5.8125-3.785156 0-6.808594-2.601562-6.808594-5.8125 0-.578125.273438-1.4375.726563-2.445312.453125-1.007813 1.085937-2.167969 1.796875-3.375 1.386719-2.347656 3.050781-4.855469 4.285156-6.820313zm0 0" fill="#212121"/><path d="m5.957031 17.335938c0 3.300781 3.097657 5.957031 6.945313 5.957031s6.945312-2.65625 6.945312-5.957031c0-2.480469-4.464844-8.929688-6.945312-12.898438-2.480469 3.96875-6.945313 10.417969-6.945313 12.898438zm0 0" fill="url(#h)"/><path d="m12.902344 4.4375c-2.480469 3.96875-6.945313 10.417969-6.945313 12.898438 0 .101562 0 .203124.007813.300781.214844-2.609375 4.519531-8.835938 6.9375-12.703125 2.417968 3.867187 6.71875 10.09375 6.9375 12.703125.003906-.097657.007812-.199219.007812-.300781 0-2.480469-4.464844-8.929688-6.945312-12.898438zm0 0" fill="#fff" fill-opacity=".392157"/><path d="m5.957031 17.242188v.09375c0 3.300781 3.097657 5.957031 6.945313 5.957031s6.945312-2.65625 6.945312-5.957031c0-.027344 0-.058594-.003906-.09375-.089844 3.230468-3.152344 5.804687-6.941406 5.804687-3.789063 0-6.851563-2.574219-6.945313-5.804687zm0 0" fill-opacity=".235294"/><path d="m12.902344 4.171875-.121094.191406c-1.238281 1.980469-2.972656 4.585938-4.402344 7.011719-.714844 1.210938-1.355468 2.378906-1.816406 3.402344-.460938 1.023437-.746094 1.898437-.746094 2.558594 0 3.386718 3.171875 6.097656 7.085938 6.097656 3.914062 0 7.085937-2.710938 7.085937-6.097656 0-.660157-.289062-1.535157-.75-2.558594-.460937-1.023438-1.097656-2.191406-1.8125-3.402344-1.429687-2.425781-3.167969-5.03125-4.40625-7.011719zm0 .527344c1.234375 1.964843 2.898437 4.472656 4.28125 6.816406.710937 1.207031 1.347656 2.367187 1.800781 3.375s.722656 1.867187.722656 2.445313c0 3.210937-3.023437 5.816406-6.804687 5.816406-3.785156 0-6.804688-2.605469-6.804688-5.816406 0-.578126.269532-1.4375.722656-2.445313.453126-1.007813 1.085938-2.167969 1.800782-3.375 1.382812-2.34375 3.046875-4.851563 4.28125-6.816406zm0 0" fill="#212121"/><path d="m27.785156 17.335938c0 3.300781 3.097656 5.957031 6.945313 5.957031 3.851562 0 6.949219-2.65625 6.949219-5.957031 0-2.480469-4.46875-8.929688-6.949219-12.898438-2.480469 3.96875-6.945313 10.417969-6.945313 12.898438zm0 0" fill="url(#i)"/><path d="m34.730469 4.4375c-2.480469 3.96875-6.945313 10.417969-6.945313 12.898438 0 .101562.003906.203124.007813.300781.21875-2.609375 4.519531-8.835938 6.9375-12.703125 2.417969 3.867187 6.722656 10.09375 6.9375 12.703125.007812-.097657.011719-.199219.011719-.300781 0-2.480469-4.46875-8.929688-6.949219-12.898438zm0 0" fill="#fff" fill-opacity=".392157"/><path d="m27.789062 17.242188c-.003906.035156-.003906.066406-.003906.09375 0 3.300781 3.097656 5.957031 6.945313 5.957031 3.851562 0 6.949219-2.65625 6.949219-5.957031 0-.027344-.003907-.058594-.003907-.09375-.09375 3.230468-3.15625 5.804687-6.945312 5.804687-3.789063 0-6.847657-2.574219-6.941407-5.804687zm0 0" fill-opacity=".235294"/><path d="m34.730469 4.171875-.117188.191406c-1.238281 1.980469-2.976562 4.585938-4.40625 7.011719-.714843 1.210938-1.351562 2.378906-1.8125 3.402344-.460937 1.023437-.75 1.898437-.75 2.558594 0 3.386718 3.175781 6.097656 7.085938 6.097656 3.914062 0 7.089843-2.710938 7.089843-6.097656 0-.660157-.289062-1.535157-.75-2.558594-.460937-1.023438-1.097656-2.191406-1.8125-3.402344-1.429687-2.425781-3.167968-5.03125-4.40625-7.011719zm0 .527344c1.234375 1.964843 2.898437 4.472656 4.285156 6.816406.710937 1.207031 1.34375 2.367187 1.796875 3.375s.726562 1.867187.726562 2.445313c0 3.210937-3.023437 5.816406-6.808593 5.816406-3.78125 0-6.804688-2.605469-6.804688-5.816406 0-.578126.269531-1.4375.726563-2.445313.453125-1.007813 1.085937-2.167969 1.796875-3.375 1.382812-2.34375 3.050781-4.851563 4.28125-6.816406zm0 0" fill="#212121"/></svg>

<?xml version="1.0" encoding="UTF-8"?>
<svg xmlns="http://www.w3.org/2000/svg" xmlns:xlink="http://www.w3.org/1999/xlink" width="48pt" height="48pt" viewBox="0 0 48 48" version="1.1">
<defs>
<radialGradient id="radial0" gradientUnits="userSpaceOnUse" cx="450.908936" cy="189.579361" fx="450.908936" fy="189.579361" r="21.166656" gradientTransform="matrix(0.000000261256,-0.117199,-0.210958,-0.000000152308,64.304021,95.392994)">
<stop offset="0" style="stop-color:rgb(0%,0%,0%);stop-opacity:0.313725;"/>
<stop offset="0.222222" style="stop-color:rgb(0%,0%,0%);stop-opacity:0.27451;"/>
<stop offset="1" style="stop-color:rgb(0%,0%,0%);stop-opacity:0;"/>
</radialGradient>
<radialGradient id="radial1" gradientUnits="userSpaceOnUse" cx="450.908936" cy="189.579361" fx="450.908936" fy="189.579361" r="21.166656" gradientTransform="matrix(-0.000000261256,0.117199,0.210958,0.000000152308,-16.674469,-11.291223)">
<stop offset="0" style="stop-color:rgb(0%,0%,0%);stop-opacity:0.313725;"/>
<stop offset="0.222222" style="stop-color:rgb(0%,0%,0%);stop-opacity:0.27451;"/>
<stop offset="1" style="stop-color:rgb(0%,0%,0%);stop-opacity:0;"/>
</radialGradient>
<radialGradient id="radial2" gradientUnits="userSpaceOnUse" cx="450.908936" cy="189.579361" fx="450.908936" fy="189.579361" r="21.166656" gradientTransform="matrix(-0.000000261256,-0.117199,0.210958,-0.000000152308,-16.674469,95.392994)">
<stop offset="0" style="stop-color:rgb(0%,0%,0%);stop-opacity:0.313725;"/>
<stop offset="0.222222" style="stop-color:rgb(0%,0%,0%);stop-opacity:0.27451;"/>
<stop offset="1" style="stop-color:rgb(0%,0%,0%);stop-opacity:0;"/>
</radialGradient>
<radialGradient id="radial3" gradientUnits="userSpaceOnUse" cx="450.908936" cy="189.579361" fx="450.908936" fy="189.579361" r="21.166656" gradientTransform="matrix(0.000000261256,0.117199,-0.210958,0.000000152308,64.304018,-11.291224)">
<stop offset="0" style="stop-color:rgb(0%,0%,0%);stop-opacity:0.313725;"/>
<stop offset="0.222222" style="stop-color:rgb(0%,0%,0%);stop-opacity:0.27451;"/>
<stop offset="1" style="stop-color:rgb(0%,0%,0%);stop-opacity:0;"/>
</radialGradient>
<linearGradient id="linear0" gradientUnits="userSpaceOnUse" x1="255.323059" y1="233.5" x2="255.323044" y2="254.666656" gradientTransform="matrix(0.0200401,0,0,0.093759,18.698079,20.158175)">
<stop offset="0" style="stop-color:rgb(0%,0%,0%);stop-opacity:0.27451;"/>
<stop offset="1" style="stop-color:rgb(0%,0%,0%);stop-opacity:0;"/>
</linearGradient>
<linearGradient id="linear1" gradientUnits="userSpaceOnUse" x1="960" y1="1695.118164" x2="960" y2="175.118118" gradientTransform="matrix(0.0124035,0,0,0.0124035,11.907387,21.025457)">
<stop offset="0" style="stop-color:rgb(40%,73.333333%,41.568627%);stop-opacity:1;"/>
<stop offset="1" style="stop-color:rgb(50.588235%,78.039216%,51.764706%);stop-opacity:1;"/>
</linearGradient>
<linearGradient id="linear2" gradientUnits="userSpaceOnUse" x1="960" y1="1695.118164" x2="960" y2="175.118118" gradientTransform="matrix(0.0124035,0,0,0.0124035,0.99451,2.265968)">
<stop offset="0" style="stop-color:rgb(93.72549%,32.54902%,31.372549%);stop-opacity:1;"/>
<stop offset="1" style="stop-color:rgb(89.803922%,45.098039%,45.098039%);stop-opacity:1;"/>
</linearGradient>
<linearGradient id="linear3" gradientUnits="userSpaceOnUse" x1="960" y1="1695.118164" x2="960" y2="175.118118" gradientTransform="matrix(0.0124035,0,0,0.0124035,22.824724,2.265968)">
<stop offset="0" style="stop-color:rgb(25.882353%,64.705882%,96.078431%);stop-opacity:1;"/>
<stop offset="1" style="stop-color:rgb(39.215686%,70.980392%,96.470588%);stop-opacity:1;"/>
</linearGradient>
</defs>
<g id="surface1">
<path style=" stroke:none;fill-rule:nonzero;fill:url(#radial0);" d="M 24.808594 42.050781 L 28.777344 42.050781 L 28.777344 40.066406 L 24.808594 40.066406 Z M 24.808594 42.050781 "/>
<path style=" stroke:none;fill-rule:nonzero;fill:url(#radial1);" d="M 22.824219 42.050781 L 18.851562 42.050781 L 18.851562 44.035156 L 22.824219 44.035156 Z M 22.824219 42.050781 "/>
<path style=" stroke:none;fill-rule:nonzero;fill:url(#radial2);" d="M 22.824219 42.050781 L 18.851562 42.050781 L 18.851562 40.066406 L 22.824219 40.066406 Z M 22.824219 42.050781 "/>
<path style=" stroke:none;fill-rule:nonzero;fill:url(#radial3);" d="M 24.808594 42.050781 L 28.777344 42.050781 L 28.777344 44.035156 L 24.808594 44.035156 Z M 24.808594 42.050781 "/>
<path style=" stroke:none;fill-rule:nonzero;fill:url(#linear0);" d="M 22.824219 41.554688 L 24.808594 41.554688 L 24.808594 44.035156 L 22.824219 44.035156 Z M 22.824219 41.554688 "/>
<path style=" stroke:none;fill-rule:nonzero;fill:url(#linear1);" d="M 16.867188 36.097656 C 16.867188 39.394531 19.964844 42.050781 23.816406 42.050781 C 27.664062 42.050781 30.761719 39.394531 30.761719 36.097656 C 30.761719 33.617188 26.296875 27.167969 23.816406 23.199219 C 21.335938 27.167969 16.867188 33.617188 16.867188 36.097656 Z M 16.867188 36.097656 "/>
<path style=" stroke:none;fill-rule:nonzero;fill:rgb(100%,100%,100%);fill-opacity:0.392157;" d="M 23.816406 23.199219 C 21.335938 27.167969 16.867188 33.617188 16.867188 36.097656 C 16.867188 36.199219 16.871094 36.296875 16.878906 36.398438 C 17.09375 33.785156 21.398438 27.5625 23.816406 23.695312 C 26.234375 27.5625 30.535156 33.785156 30.753906 36.398438 C 30.757812 36.296875 30.761719 36.199219 30.761719 36.097656 C 30.761719 33.617188 26.296875 27.167969 23.816406 23.199219 Z M 23.816406 23.199219 "/>
<path style=" stroke:none;fill-rule:nonzero;fill:rgb(0%,0%,0%);fill-opacity:0.235294;" d="M 16.871094 36.003906 C 16.871094 36.035156 16.867188 36.066406 16.867188 36.097656 C 16.867188 39.394531 19.964844 42.050781 23.816406 42.050781 C 27.664062 42.050781 30.761719 39.394531 30.761719 36.097656 C 30.761719 36.066406 30.761719 36.035156 30.757812 36.003906 C 30.664062 39.230469 27.605469 41.804688 23.816406 41.804688 C 20.027344 41.804688 16.964844 39.230469 16.871094 36.003906 Z M 16.871094 36.003906 "/>
<path style=" stroke:none;fill-rule:nonzero;fill:rgb(12.941177%,12.941177%,12.941177%);fill-opacity:1;" d="M 23.816406 22.933594 L 23.695312 23.121094 C 22.457031 25.105469 20.71875 27.710938 19.289062 30.132812 C 18.574219 31.347656 17.9375 32.511719 17.476562 33.535156 C 17.015625 34.558594 16.726562 35.433594 16.726562 36.097656 C 16.726562 39.484375 19.902344 42.191406 23.816406 42.191406 C 27.726562 42.191406 30.902344 39.484375 30.902344 36.097656 C 30.902344 35.433594 30.613281 34.558594 30.152344 33.535156 C 29.691406 32.511719 29.054688 31.347656 28.339844 30.132812 C 26.910156 27.710938 25.171875 25.105469 23.933594 23.121094 Z M 23.816406 23.457031 C 25.046875 25.421875 26.714844 27.929688 28.097656 30.277344 C 28.808594 31.484375 29.441406 32.644531 29.894531 33.652344 C 30.351562 34.660156 30.621094 35.519531 30.621094 36.097656 C 30.621094 39.308594 27.597656 41.910156 23.816406 41.910156 C 20.03125 41.910156 17.007812 39.308594 17.007812 36.097656 C 17.007812 35.519531 17.28125 34.660156 17.734375 33.652344 C 18.1875 32.644531 18.820312 31.484375 19.53125 30.277344 C 20.917969 27.929688 22.582031 25.421875 23.816406 23.457031 Z M 23.816406 23.457031 "/>
<path style=" stroke:none;fill-rule:nonzero;fill:url(#linear2);" d="M 5.957031 17.335938 C 5.957031 20.636719 9.054688 23.292969 12.902344 23.292969 C 16.75 23.292969 19.847656 20.636719 19.847656 17.335938 C 19.847656 14.855469 15.382812 8.40625 12.902344 4.4375 C 10.421875 8.40625 5.957031 14.855469 5.957031 17.335938 Z M 5.957031 17.335938 "/>
<path style=" stroke:none;fill-rule:nonzero;fill:rgb(100%,100%,100%);fill-opacity:0.392157;" d="M 12.902344 4.4375 C 10.421875 8.40625 5.957031 14.855469 5.957031 17.335938 C 5.957031 17.4375 5.957031 17.539062 5.964844 17.636719 C 6.179688 15.027344 10.484375 8.800781 12.902344 4.933594 C 15.320312 8.800781 19.621094 15.027344 19.839844 17.636719 C 19.84375 17.539062 19.847656 17.4375 19.847656 17.335938 C 19.847656 14.855469 15.382812 8.40625 12.902344 4.4375 Z M 12.902344 4.4375 "/>
<path style=" stroke:none;fill-rule:nonzero;fill:rgb(0%,0%,0%);fill-opacity:0.235294;" d="M 5.957031 17.242188 C 5.957031 17.277344 5.957031 17.308594 5.957031 17.335938 C 5.957031 20.636719 9.054688 23.292969 12.902344 23.292969 C 16.75 23.292969 19.847656 20.636719 19.847656 17.335938 C 19.847656 17.308594 19.847656 17.277344 19.84375 17.242188 C 19.753906 20.472656 16.691406 23.046875 12.902344 23.046875 C 9.113281 23.046875 6.050781 20.472656 5.957031 17.242188 Z M 5.957031 17.242188 "/>
<path style=" stroke:none;fill-rule:nonzero;fill:rgb(12.941177%,12.941177%,12.941177%);fill-opacity:1;" d="M 12.902344 4.171875 L 12.78125 4.363281 C 11.542969 6.34375 9.808594 8.949219 8.378906 11.375 C 7.664062 12.585938 7.023438 13.753906 6.5625 14.777344 C 6.101562 15.800781 5.816406 16.675781 5.816406 17.335938 C 5.816406 20.722656 8.988281 23.433594 12.902344 23.433594 C 16.816406 23.433594 19.988281 20.722656 19.988281 17.335938 C 19.988281 16.675781 19.699219 15.800781 19.238281 14.777344 C 18.777344 13.753906 18.140625 12.585938 17.425781 11.375 C 15.996094 8.949219 14.257812 6.34375 13.019531 4.363281 Z M 12.902344 4.699219 C 14.136719 6.664062 15.800781 9.171875 17.183594 11.515625 C 17.894531 12.722656 18.53125 13.882812 18.984375 14.890625 C 19.4375 15.898438 19.707031 16.757812 19.707031 17.335938 C 19.707031 20.546875 16.683594 23.152344 12.902344 23.152344 C 9.117188 23.152344 6.097656 20.546875 6.097656 17.335938 C 6.097656 16.757812 6.367188 15.898438 6.820312 14.890625 C 7.273438 13.882812 7.90625 12.722656 8.621094 11.515625 C 10.003906 9.171875 11.667969 6.664062 12.902344 4.699219 Z M 12.902344 4.699219 "/>
<path style=" stroke:none;fill-rule:nonzero;fill:url(#linear3);" d="M 27.785156 17.335938 C 27.785156 20.636719 30.882812 23.292969 34.730469 23.292969 C 38.582031 23.292969 41.679688 20.636719 41.679688 17.335938 C 41.679688 14.855469 37.210938 8.40625 34.730469 4.4375 C 32.25 8.40625 27.785156 14.855469 27.785156 17.335938 Z M 27.785156 17.335938 "/>
<path style=" stroke:none;fill-rule:nonzero;fill:rgb(100%,100%,100%);fill-opacity:0.392157;" d="M 34.730469 4.4375 C 32.25 8.40625 27.785156 14.855469 27.785156 17.335938 C 27.785156 17.4375 27.789062 17.539062 27.792969 17.636719 C 28.011719 15.027344 32.3125 8.800781 34.730469 4.933594 C 37.148438 8.800781 41.453125 15.027344 41.667969 17.636719 C 41.675781 17.539062 41.679688 17.4375 41.679688 17.335938 C 41.679688 14.855469 37.210938 8.40625 34.730469 4.4375 Z M 34.730469 4.4375 "/>
<path style=" stroke:none;fill-rule:nonzero;fill:rgb(0%,0%,0%);fill-opacity:0.235294;" d="M 27.789062 17.242188 C 27.785156 17.277344 27.785156 17.308594 27.785156 17.335938 C 27.785156 20.636719 30.882812 23.292969 34.730469 23.292969 C 38.582031 23.292969 41.679688 20.636719 41.679688 17.335938 C 41.679688 17.308594 41.675781 17.277344 41.675781 17.242188 C 41.582031 20.472656 38.519531 23.046875 34.730469 23.046875 C 30.941406 23.046875 27.882812 20.472656 27.789062 17.242188 Z M 27.789062 17.242188 "/>
<path style=" stroke:none;fill-rule:nonzero;fill:rgb(12.941177%,12.941177%,12.941177%);fill-opacity:1;" d="M 34.730469 4.171875 L 34.613281 4.363281 C 33.375 6.34375 31.636719 8.949219 30.207031 11.375 C 29.492188 12.585938 28.855469 13.753906 28.394531 14.777344 C 27.933594 15.800781 27.644531 16.675781 27.644531 17.335938 C 27.644531 20.722656 30.820312 23.433594 34.730469 23.433594 C 38.644531 23.433594 41.820312 20.722656 41.820312 17.335938 C 41.820312 16.675781 41.53125 15.800781 41.070312 14.777344 C 40.609375 13.753906 39.972656 12.585938 39.257812 11.375 C 37.828125 8.949219 36.089844 6.34375 34.851562 4.363281 Z M 34.730469 4.699219 C 35.964844 6.664062 37.628906 9.171875 39.015625 11.515625 C 39.726562 12.722656 40.359375 13.882812 40.8125 14.890625 C 41.265625 15.898438 41.539062 16.757812 41.539062 17.335938 C 41.539062 20.546875 38.515625 23.152344 34.730469 23.152344 C 30.949219 23.152344 27.925781 20.546875 27.925781 17.335938 C 27.925781 16.757812 28.195312 15.898438 28.652344 14.890625 C 29.105469 13.882812 29.738281 12.722656 30.449219 11.515625 C 31.832031 9.171875 33.5 6.664062 34.730469 4.699219 Z M 34.730469 4.699219 "/>
</g>
</svg>
